// After <2025-12-20 土> this is the classto use
// for running simulations on a group of creatures.

// Test and examples:
EvoLab.play(Chain(), [phrase1: 0.5, phrase2: 1.5], inf);
EvoLab.play({ Chain() } ! 2, [phrase1: 0.5, phrase2: 1.5], inf);
