Emro.buffer;
Emro.buffer.play;
Emro.testBuffer;
//:
EvoLab.play(
	[Emro],
	[
		\testBuffer, 5
	],
	5
)
//:
Emro release: 20;
//:
Emro.day;
//:
EvoLab.play(
	[Emro],
	[
		\day, 5
	],
	5
)
//:
Emro.night;
//:
EvoLab.play(
	[Emro],
	[
		\day, 5,
		\night, 5
	],
	5
)
//:

