<EditCreatureName> : Creature {
	dawn {
		this add: {
			
		}.play;
	}
	morning {
		this add: {
			
		}.play;
	}
	day {
		this add: {
			
		}.play;
	}
	noon {
		this add: {
			
		}.play;
	}
	afternoon {
		this add: {
			
		}.play;
	}
	evening {
		this add: {
			
		}.play;
	}
	night {
		this add: {
			
		}.play;
	}
}